images/svg/chat.svg

<svg width="24" height="24" viewBox="0 0 24 24" fill="none" xmlns="http://www.w3.org/2000/svg">
<path d="M2.83383 18.2423C2.83383 18.2456 2.83383 18.2517 2.83008 18.2602C2.83148 18.2545 2.83242 18.2484 2.83383 18.2423ZM20.621 19.0125C20.4667 19.0092 20.3143 18.9774 20.1715 18.9188L17.5099 17.9752L17.4902 17.9672C17.4322 17.943 17.3698 17.9309 17.307 17.9316C17.249 17.9316 17.1915 17.9421 17.1373 17.9625C17.0726 17.9869 16.4899 18.2058 15.8787 18.3736C15.5473 18.4645 14.3937 18.7613 13.4679 18.7613C11.1016 18.7613 8.88914 17.8519 7.23867 16.2005C6.43238 15.3991 5.79304 14.4458 5.35766 13.3957C4.92229 12.3456 4.69952 11.2196 4.70227 10.0828C4.70225 9.4905 4.76605 8.8999 4.89258 8.32125C5.30461 6.41719 6.39586 4.68516 7.96523 3.44625C9.57509 2.18346 11.5625 1.49805 13.6085 1.5C16.0559 1.5 18.3363 2.4375 20.0304 4.13344C21.6316 5.73985 22.5091 7.85204 22.5021 10.0805C22.5007 11.7364 22.0063 13.3543 21.0818 14.7281L21.0729 14.7413L21.0382 14.7881C21.0302 14.7989 21.0223 14.8092 21.0148 14.82L21.0077 14.8327C20.9891 14.8644 20.9722 14.8971 20.9571 14.9306L21.6949 17.5528C21.7275 17.661 21.7452 17.7731 21.7474 17.8861C21.7476 18.0341 21.7186 18.1806 21.6621 18.3174C21.6055 18.4541 21.5226 18.5784 21.4179 18.683C21.3133 18.7876 21.189 18.8706 21.0523 18.9271C20.9155 18.9837 20.769 19.0127 20.621 19.0125Z" fill="#8E8E93"/>
<path d="M14.0564 19.9402C14.008 19.8459 13.9398 19.7633 13.8566 19.6978C13.7734 19.6322 13.677 19.5854 13.5741 19.5605C13.3031 19.4887 12.9872 19.5009 12.7458 19.4831C10.4664 19.3246 8.32148 18.3464 6.70737 16.7292C5.2724 15.3023 4.33982 13.4478 4.05002 11.445C3.9844 10.9884 3.9844 10.875 3.9844 10.875C3.98437 10.7227 3.93796 10.5739 3.85134 10.4486C3.76472 10.3233 3.64199 10.2274 3.4995 10.1735C3.357 10.1197 3.20149 10.1105 3.05365 10.1472C2.90581 10.1839 2.77265 10.2648 2.6719 10.379C2.6719 10.379 2.30252 10.7812 2.12815 11.1848C1.63909 12.3116 1.43053 13.5402 1.52033 14.7653C1.61014 15.9904 1.99563 17.1754 2.64377 18.2189C2.76565 18.4219 2.76565 18.5156 2.73846 18.7266C2.61049 19.388 2.38643 20.5547 2.26971 21.1598C2.23107 21.3561 2.24544 21.5591 2.31135 21.7479C2.37727 21.9368 2.49234 22.1046 2.64471 22.2342L2.66627 22.2525C2.86784 22.4126 3.11762 22.4998 3.37502 22.5C3.51981 22.5001 3.66318 22.4716 3.7969 22.4161L6.30518 21.4481C6.39154 21.4153 6.48694 21.4153 6.5733 21.4481C7.56096 21.8156 8.58893 22.0106 9.56299 22.0106C10.7767 22.0118 11.9756 21.7451 13.0744 21.2297C13.3303 21.1097 13.7306 20.9794 13.965 20.7084C14.0537 20.6033 14.1097 20.4745 14.1259 20.338C14.1421 20.2014 14.118 20.0631 14.0564 19.9402Z" fill="#8E8E93"/>
</svg>

<svg width="24" height="24" fill="none" xmlns="http://www.w3.org/2000/svg"><path d="M2.834 18.242c0 .004 0 .01-.004.018l.004-.018zm17.787.77a1.255 1.255 0 01-.45-.093l-2.661-.944-.02-.008a.482.482 0 00-.353-.005c-.064.025-.647.244-1.258.412-.332.09-1.485.387-2.411.387-2.366 0-4.579-.91-6.23-2.56a8.597 8.597 0 01-2.536-6.118c0-.592.064-1.183.19-1.762.413-1.904 1.504-3.636 3.073-4.875A9.13 9.13 0 0113.608 1.5c2.448 0 4.728.938 6.422 2.633 1.602 1.607 2.48 3.719 2.472 5.948a8.337 8.337 0 01-1.42 4.647l-.01.013-.034.047-.023.032-.007.013a1.03 1.03 0 00-.05.098l.737 2.622a1.126 1.126 0 01-1.074 1.46z" fill="#8E8E93"/><path d="M14.056 19.94a.737.737 0 00-.482-.38c-.27-.071-.587-.06-.828-.077a9.458 9.458 0 01-6.039-2.754 9.338 9.338 0 01-2.657-5.284c-.066-.457-.066-.57-.066-.57a.75.75 0 00-1.312-.496s-.37.402-.544.806a7.598 7.598 0 00.516 7.034c.122.203.122.297.094.508L2.27 21.16a1.125 1.125 0 00.375 1.074l.021.018c.202.16.452.248.709.248.145 0 .288-.028.422-.084l2.508-.968a.378.378 0 01.268 0 8.665 8.665 0 002.99.563 8.25 8.25 0 003.511-.781c.256-.12.657-.25.891-.522a.703.703 0 00.091-.768z" fill="#8E8E93"/></svg>
